X:1
T:L'occhi, le mani e le chiome d'Amore
T:Lodovico Agostini
T:L'occhi, le mani e le chiome d'Amore
C:Lodovico Agostini
%%score [ 1 2 3 4 ]
L:1/8
Q:1/4=100
M:4/2
K:F
V:1 alto1 nm="Soprano" snm="S"
V:2 alto2 nm="Alto" snm="A"
V:3 alto nm="Tenor" snm="T"
V:4 bass3 nm="Bass" snm="B"
V:1
 z16 | F8 E4 z2 A2 | A4 A4 z2 A4 c2 | c4 c2 c2 B4 A4 | z2 =B2 c4 c4 z4 | B4 A4 z2 G2 A4 | %6
w: |L'oc- chi, le|ma- ni e le|chio- me d'A- mo- re,|Vi- va- ci,|bian- che e di|
 A2 A4 A2 G8 | A8 z4 B4- | B4 B6 B2 B2 B2 | A4 z2 A2 A2 G2 G4 | ^F2 G2 G2 ^G2 A4 B4- | %11
w: fin o- ro fat-|te, Cru-|* del a ri- guar-|dar a tut- te l'ho-|re, Ri- no- van lac- cia|
 B2 B2 c4 c4 A4 | G8 G8 | z4 A8 G4 | c6 =B2 B8 | c4 A8 B4 | G4 G12 | F8 D8 | E6 F2 G8 | %19
w: _ le mem- bra di-|sfat- te,|E le-|gan- do- mi|poi l'af- flit-|to co-|re, Tor-|men- * *|
 A6 G2 F4 F4 | F6 E2 D4 G4 | G6 A2 B8 | A4 c8 G4 | A4 A2 B4 B2 B4 | A4 B4 B4 d4- | d4 B4 c4 d2 c2 | %26
w: * * * to|smi- * * su-|ra- * *|to mi di-|bat- te, In- fi- ni-|to do- lor, o|_ cru- del sor- *|
 B2 A2 B4 A4 z2 G2- | G2 G2 A4 B2 G2 G4 | z2 A2 G2 F2 F2 E2 F4 | z2 G4 F2 F4 ^F2 G2 | %30
w: * * * te, A|_ che tan- to in- du- giar|dam- mi la mor- * te,|A che tan- to in- du-|
 G2 A2 G2 F2 F2 ED E4 | F16 |] %32
w: giar dam- mi la mor- * * *|te.|
V:2
 z16 | C8 C4 z2 F2 | E4 ^F4 z2 =F4 A2 | G4 A2 A2 G4 ^F4 | z2 G2 G4 A4 z4 | F4 F4 z2 D2 F4 | %6
w: |L'oc- chi, le|ma- ni e le|chio- me d'A- mo- re,|Vi- va- ci,|bian- che e di|
 F2 F2 F2 F4 ED E4 | F8 z4 F4- | F4 G6 F2 G2 G2 | E4 z2 F2 F2 D2 _E4 | D2 D2 D2 E2 E4 G4- | %11
w: fin o- ro fat- * * *|te, Cru-|* del a ri- guar-|dar a tut- te l'ho-|re, Ri- no- van lac- cia|
 G2 G2 A4 G4 F4 | D8 E8 | z4 F8 E4 | G12 G4 | G4 F8 F4 | _E12 E4 | C8 B,8 | A,8 z4 D4- | %19
w: _ le mem- bra di-|sfat- te,|E le-|gan- do-|mi poi l'af-|flit- to|co- *|re, Tor-|
 D4 C8 B,4 | A,4 C4 =B,3 C D4 | E2 E4 E2 F6 ED | C2 A,2 F6 ED E4 | F8 z4 F4- | F2 F2 G4 F4 F4 | %25
w: * men- to|smi- su- * * ra-|to mi di- bat- * *||te, In-|* fi- ni- to do-|
 D4 G4 G4 A4 | G8 ^F4 z2 D2- | D2 E2 F4 F2 D2 E4 | z2 C2 C2 C2 C4 C4 | z2 _E4 D2 C4 D2 D2 | %30
w: lor, o cru- del|sor- te, A|_ che tan- to in- du- giar|dam- mi la mor- te,|A che tan- to in- du-|
 E2 C2 C2 C2 C8 | C16 |] %32
w: giar dam- mi la mor-|te.|
V:3
 z16 | A,8 G,4 z2 D2 | ^C4 D4 z2 =C4 F2 | E4 E2 F2 D4 D4 | z2 D2 E4 F4 z4 | D4 C4 z2 B,2 C4 | %6
w: |L'oc- chi, le|ma- ni e le|chio- me d'A- mo- re,|Vi- va- ci,|bian- che e di|
 C2 C4 C2 C8 | C8 z4 D4- | D4 _E6 D2 D2 D2 | ^C4 z2 D2 =C2 =B,2 C4 | A,2 =B,2 B,2 B,2 ^C4 D4 | %11
w: fin o- ro fat-|te, Cru-|* del a ri- guar-|dar a tut- te l'ho-|re, Ri- no- van lac- cia|
 D4 F6 E2 D2 C2- | C2 =B,A, B,4 C8 | z4 C8 C4 | _E8 D6 D2 | E4 C8 D4- | D4 C8 B,4 | A,8 G,4 D4- | %18
w: le mem- bra di- sfat-|* * * * te,|E le-|gan- * do-|mi poi l'af-|* flit- to|co- re, Tor-|
 D4 C8 B,4 | A,4 A,4 D8- | D4 G,6 A,2 =B,2 A,B, | C4 C4 D6 G,2 | A,8 G,4 z2 C2- | C2 C2 D4 G,4 D4 | %24
w: * men- to|smi- su- ra-||* to mi di-|bat- te, In-|* fi- ni- to do-|
 C4 _E4 D2 C2 B,2 A,2 | B,2 C2 D4 _E4 D4- | D4 D4 z4 =B,4- | B,2 C2 C4 D2 =B,2 C4 | %28
w: lor, o cru- * * *|* * * del sor-|* te, A|_ che tan- to in- du- giar|
 z2 F,2 G,2 A,2 G,4 A,4 | z2 B,4 B,2 A,4 A,2 =B,2 | C2 F,2 G,2 A,2 G,8 | A,16 |] %32
w: dam- mi la mor- te,|A che tan- to in- du-|giar dam- mi la mor-|te.|
V:4
 z16 | F,8 C,4 z2 D,2 | A,4 D,4 z2 F,4 F,2 | C4 A,2 F,2 G,4 D,4 | z2 G,2 C4 F,4 z4 | %5
w: |L'oc- chi, le|ma- ni e le|chio- me d'A- mo- re,|Vi- va- ci,|
 B,4 F,4 z2 G,2 F,4 | F,2 F,4 F,2 C,8 | F,8 z4 B,4- | B,4 _E,6 B,2 G,2 G,2 | %9
w: bian- che e di|fin o- ro fat-|te, Cru-|* del a ri- guar-|
 A,4 z2 D,2 F,2 G,2 C,4 | D,2 G,2 G,2 E,2 A,4 G,4- | G,2 G,2 F,4 C,4 F,4 | G,8 C,8 | %13
w: dar a tut- te l'ho-|re, Ri- no- van lac- cia|_ le mem- bra di-|sfat- te,|
 z4 F,4 A,4 C4- | C4 G,8 G,4 | E,4 F,8 D,4 | _E,12 E,4 | F,8 G,8 | z4 A,4 G,8 | F,8 D,8- | %20
w: E le- gan-|* * do-|mi poi l'af-|flit- to|co- re,|Tor- men-|to smi-|
 D,4 C,4 G,8 | C,8 B,,2 C,2 D,2 E,2 | F,4 F,4 C,8 | F,4 z2 B,4 B,2 B,4 | F,4 _E,4 B,,8 | %25
w: * su- ra-|to mi _ _ _|_ di- bat-|te, In- fi- ni-|to do- lor,|
 G,8 _E,4 F,4 | G,8 D,4 z2 G,2- | G,2 C,2 F,4 D,2 G,2 C,4 | z2 F,2 E,2 F,2 C,4 F,4 | %29
w: o cru- del|sor- te, A|_ che tan- to in- du- giar|dam- mi la mor- te,|
 z2 _E,4 B,,2 F,4 D,2 G,2 | C,2 F,2 E,2 F,2 C,8 | F,16 |] %32
w: A che tan- to in- du-|giar dam- mi la mor-|te.|

